svgs/sharp-solid/menorah.svg

<svg xmlns="http://www.w3.org/2000/svg" viewBox="0 0 640 512"><!--! Font Awesome Pro 6.6.0 by @fontawesome - https://fontawesome.com License - https://fontawesome.com/license (Commercial License) Copyright 2024 Fonticons, Inc. --><path d="M32 0L59.8 48.7C62.6 53.5 64 58.9 64 64.4C64 81.8 49.8 96 32.4 96l-.8 0C14.2 96 0 81.8 0 64.4c0-5.5 1.4-10.9 4.2-15.7L32 0zm96 0l27.8 48.7c2.7 4.8 4.2 10.2 4.2 15.7C160 81.8 145.8 96 128.4 96l-.8 0C110.2 96 96 81.8 96 64.4c0-5.5 1.4-10.9 4.2-15.7L128 0zm68.2 48.7L224 0l27.8 48.7c2.7 4.8 4.2 10.2 4.2 15.7C256 81.8 241.8 96 224.4 96l-.8 0C206.2 96 192 81.8 192 64.4c0-5.5 1.4-10.9 4.2-15.7zM320 0l27.8 48.7c2.7 4.8 4.2 10.2 4.2 15.7C352 81.8 337.8 96 320.4 96l-.8 0C302.2 96 288 81.8 288 64.4c0-5.5 1.4-10.9 4.2-15.7L320 0zm68.2 48.7L416 0l27.8 48.7c2.7 4.8 4.2 10.2 4.2 15.7C448 81.8 433.8 96 416.4 96l-.8 0C398.2 96 384 81.8 384 64.4c0-5.5 1.4-10.9 4.2-15.7zM512 0l27.8 48.7c2.7 4.8 4.2 10.2 4.2 15.7C544 81.8 529.8 96 512.4 96l-.8 0C494.2 96 480 81.8 480 64.4c0-5.5 1.4-10.9 4.2-15.7L512 0zm68.2 48.7L608 0l27.8 48.7c2.7 4.8 4.2 10.2 4.2 15.7C640 81.8 625.8 96 608.4 96l-.8 0C590.2 96 576 81.8 576 64.4c0-5.5 1.4-10.9 4.2-15.7zM64 128l0 32 0 160 224 0 0-160 0-32 64 0 0 32 0 160 224 0 0-160 0-32 64 0 0 32 0 192 0 32-32 0-256 0 0 64 128 0 32 0 0 64-32 0-160 0-160 0-32 0 0-64 32 0 128 0 0-64L32 384 0 384l0-32L0 160l0-32 64 0zm96 0l0 32 0 128-64 0 0-128 0-32 64 0zm96 0l0 32 0 128-64 0 0-128 0-32 64 0zm192 0l0 32 0 128-64 0 0-128 0-32 64 0zm96 0l0 32 0 128-64 0 0-128 0-32 64 0z"/></svg>

<svg xmlns="http://www.w3.org/2000/svg" viewBox="0 0 640 512"><!--! Font Awesome Pro 6.4.2 by @fontawesome - https://fontawesome.com License - https://fontawesome.com/license (Commercial License) Copyright 2023 Fonticons, Inc. --><path d="M32 0L59.8 48.7C62.6 53.5 64 58.9 64 64.4C64 81.8 49.8 96 32.4 96h-.8C14.2 96 0 81.8 0 64.4c0-5.5 1.4-10.9 4.2-15.7L32 0zm96 0l27.8 48.7c2.7 4.8 4.2 10.2 4.2 15.7C160 81.8 145.8 96 128.4 96h-.8C110.2 96 96 81.8 96 64.4c0-5.5 1.4-10.9 4.2-15.7L128 0zm68.2 48.7L224 0l27.8 48.7c2.7 4.8 4.2 10.2 4.2 15.7C256 81.8 241.8 96 224.4 96h-.8C206.2 96 192 81.8 192 64.4c0-5.5 1.4-10.9 4.2-15.7zM320 0l27.8 48.7c2.7 4.8 4.2 10.2 4.2 15.7C352 81.8 337.8 96 320.4 96h-.8C302.2 96 288 81.8 288 64.4c0-5.5 1.4-10.9 4.2-15.7L320 0zm68.2 48.7L416 0l27.8 48.7c2.7 4.8 4.2 10.2 4.2 15.7C448 81.8 433.8 96 416.4 96h-.8C398.2 96 384 81.8 384 64.4c0-5.5 1.4-10.9 4.2-15.7zM512 0l27.8 48.7c2.7 4.8 4.2 10.2 4.2 15.7C544 81.8 529.8 96 512.4 96h-.8C494.2 96 480 81.8 480 64.4c0-5.5 1.4-10.9 4.2-15.7L512 0zm68.2 48.7L608 0l27.8 48.7c2.7 4.8 4.2 10.2 4.2 15.7C640 81.8 625.8 96 608.4 96h-.8C590.2 96 576 81.8 576 64.4c0-5.5 1.4-10.9 4.2-15.7zM64 128v32V320H288V160 128h64v32V320H576V160 128h64v32V352v32H608 352v64H480h32v64H480 320 160 128V448h32H288V384H32 0V352 160 128H64zm96 0v32V288H96V160 128h64zm96 0v32V288H192V160 128h64zm192 0v32V288H384V160 128h64zm96 0v32V288H480V160 128h64z"/></svg>
